(laser mirror final)
(T2  D=0.1875 CR=0. - ZMIN=-0.125 - FLAT END MILL)
G90 G94 G91.1 G40 G49 G17
G20
G28 G91 Z0.
G90
(2D CONTOUR7)
M5
M9
T2 M6
S10000 M3
G54
M8
M10P1 G0  (turn off laser) X0.4167 Y-0.0187
G43 Z0.1 H2
M11P1 G1 (turn on laser) Z0.0694 F30.
Z-0.0113
G18 G2 X0.4354 Z-0.03 I0.0187 K0.
M11P1 G1 (turn on laser) X0.4542 F45.
G17 G3 X0.4729 Y0. I0. J0.0187
X-0.1467 I-0.3098 J0.
X0.4729 I0.3098 J0.
X0.4542 Y0.0187 I-0.0188 J0.
M11P1 G1 (turn on laser) X0.4354
G18 G3 X0.4167 Z-0.0113 I0. K0.0188
M10P1 G0  (turn off laser) Z0.1
Y-0.0187
M11P1 G1 (turn on laser) Z0.0394 F30.
Z-0.0413
M11P1 G2 (turn on laser) X0.4354 Z-0.06 I0.0187 K0.
M11P1 G1 (turn on laser) X0.4542 F45.
G17 G3 X0.4729 Y0. I0. J0.0187
X-0.1467 I-0.3098 J0.
X0.4729 I0.3098 J0.
X0.4542 Y0.0187 I-0.0188 J0.
M11P1 G1 (turn on laser) X0.4354
G18 G3 X0.4167 Z-0.0413 I0. K0.0188
M10P1 G0  (turn off laser) Z0.1
Y-0.0187
M11P1 G1 (turn on laser) Z0.0094 F30.
Z-0.0613
M11P1 G2 (turn on laser) X0.4354 Z-0.08 I0.0187 K0.
M11P1 G1 (turn on laser) X0.4542 F45.
G17 G3 X0.4729 Y0. I0. J0.0187
X-0.1467 I-0.3098 J0.
X0.4729 I0.3098 J0.
X0.4542 Y0.0187 I-0.0188 J0.
M11P1 G1 (turn on laser) X0.4354
G18 G3 X0.4167 Z-0.0613 I0. K0.0188
M10P1 G0  (turn off laser) Z0.1
G17
(2D CONTOUR6)
M10P1 G0  (turn off laser) X0.1502 Y-0.2343
M11P1 G1 (turn on laser) Z0.1 F30.
Z0.0694
Z-0.0113
Y-0.2345 Z-0.0145
X0.1503 Y-0.2354 Z-0.0177
Y-0.2368 Z-0.0206
Y-0.2386 Z-0.0233
X0.1504 Y-0.2409 Z-0.0256
X0.1505 Y-0.2436 Z-0.0275
Y-0.2466 Z-0.0289
X0.1506 Y-0.2497 Z-0.0297
X0.1507 Y-0.253 Z-0.03
X0.1512 Y-0.2717 F45.
M11P1 G3 (turn on laser) X0.1704 Y-0.29 I0.0187 J0.0005
X0.4532 Y0. I-0.0072 J0.29
X-0.127 I-0.2901 J0.
X0.1704 Y-0.29 I0.2901 J0.
X0.1887 Y-0.2708 I-0.0005 J0.0187
M11P1 G1 (turn on laser) X0.1882 Y-0.2521
X0.1881 Y-0.2488 Z-0.0297
X0.188 Y-0.2456 Z-0.0289
Y-0.2427 Z-0.0275
X0.1879 Y-0.24 Z-0.0256
X0.1878 Y-0.2377 Z-0.0233
Y-0.2358 Z-0.0206
Y-0.2344 Z-0.0177
X0.1877 Y-0.2336 Z-0.0145
Y-0.2333 Z-0.0113
M10P1 G0  (turn off laser) Z0.1
X0.1502 Y-0.2343
M11P1 G1 (turn on laser) Z0.0394 F30.
Z-0.0413
Y-0.2345 Z-0.0445
X0.1503 Y-0.2354 Z-0.0477
Y-0.2368 Z-0.0506
Y-0.2386 Z-0.0533
X0.1504 Y-0.2409 Z-0.0556
X0.1505 Y-0.2436 Z-0.0575
Y-0.2466 Z-0.0589
X0.1506 Y-0.2497 Z-0.0597
X0.1507 Y-0.253 Z-0.06
X0.1512 Y-0.2717 F45.
M11P1 G3 (turn on laser) X0.1704 Y-0.29 I0.0187 J0.0005
X0.4532 Y0. I-0.0072 J0.29
X-0.127 I-0.2901 J0.
X0.1704 Y-0.29 I0.2901 J0.
X0.1887 Y-0.2708 I-0.0005 J0.0187
M11P1 G1 (turn on laser) X0.1882 Y-0.2521
X0.1881 Y-0.2488 Z-0.0597
X0.188 Y-0.2456 Z-0.0589
Y-0.2427 Z-0.0575
X0.1879 Y-0.24 Z-0.0556
X0.1878 Y-0.2377 Z-0.0533
Y-0.2358 Z-0.0506
Y-0.2344 Z-0.0477
X0.1877 Y-0.2336 Z-0.0445
Y-0.2333 Z-0.0413
M10P1 G0  (turn off laser) Z0.1
X0.1502 Y-0.2343
M11P1 G1 (turn on laser) Z0.0094 F30.
Z-0.0713
Y-0.2345 Z-0.0745
X0.1503 Y-0.2354 Z-0.0777
Y-0.2368 Z-0.0806
Y-0.2386 Z-0.0833
X0.1504 Y-0.2409 Z-0.0856
X0.1505 Y-0.2436 Z-0.0875
Y-0.2466 Z-0.0889
X0.1506 Y-0.2497 Z-0.0897
X0.1507 Y-0.253 Z-0.09
X0.1512 Y-0.2717 F45.
M11P1 G3 (turn on laser) X0.1704 Y-0.29 I0.0187 J0.0005
X0.4532 Y0. I-0.0072 J0.29
X-0.127 I-0.2901 J0.
X0.1704 Y-0.29 I0.2901 J0.
X0.1887 Y-0.2708 I-0.0005 J0.0187
M11P1 G1 (turn on laser) X0.1882 Y-0.2521
X0.1881 Y-0.2488 Z-0.0897
X0.188 Y-0.2456 Z-0.0889
Y-0.2427 Z-0.0875
X0.1879 Y-0.24 Z-0.0856
X0.1878 Y-0.2377 Z-0.0833
Y-0.2358 Z-0.0806
Y-0.2344 Z-0.0777
X0.1877 Y-0.2336 Z-0.0745
Y-0.2333 Z-0.0713
M10P1 G0  (turn off laser) Z0.1
X0.1502 Y-0.2343
M11P1 G1 (turn on laser) Z-0.0206 F30.
Z-0.0888
Y-0.2345 Z-0.092
X0.1503 Y-0.2354 Z-0.0952
Y-0.2368 Z-0.0981
Y-0.2386 Z-0.1008
X0.1504 Y-0.2409 Z-0.1031
X0.1505 Y-0.2436 Z-0.105
Y-0.2466 Z-0.1064
X0.1506 Y-0.2497 Z-0.1072
X0.1507 Y-0.253 Z-0.1075
X0.1512 Y-0.2717 F45.
M11P1 G3 (turn on laser) X0.1704 Y-0.29 I0.0187 J0.0005
X0.4532 Y0. I-0.0072 J0.29
X-0.127 I-0.2901 J0.
X0.1704 Y-0.29 I0.2901 J0.
X0.1887 Y-0.2708 I-0.0005 J0.0187
M11P1 G1 (turn on laser) X0.1882 Y-0.2521
X0.1881 Y-0.2488 Z-0.1072
X0.188 Y-0.2456 Z-0.1064
Y-0.2427 Z-0.105
X0.1879 Y-0.24 Z-0.1031
X0.1878 Y-0.2377 Z-0.1008
Y-0.2358 Z-0.0981
Y-0.2344 Z-0.0952
X0.1877 Y-0.2336 Z-0.092
Y-0.2333 Z-0.0888
M10P1 G0  (turn off laser) Z0.1
X0.1502 Y-0.2343
M11P1 G1 (turn on laser) Z-0.0381 F30.
Z-0.1063
Y-0.2345 Z-0.1095
X0.1503 Y-0.2354 Z-0.1127
Y-0.2368 Z-0.1156
Y-0.2386 Z-0.1183
X0.1504 Y-0.2409 Z-0.1206
X0.1505 Y-0.2436 Z-0.1225
Y-0.2466 Z-0.1239
X0.1506 Y-0.2497 Z-0.1247
X0.1507 Y-0.253 Z-0.125
X0.1512 Y-0.2717 F45.
M11P1 G3 (turn on laser) X0.1704 Y-0.29 I0.0187 J0.0005
X0.4532 Y0. I-0.0072 J0.29
X-0.127 I-0.2901 J0.
X0.1704 Y-0.29 I0.2901 J0.
X0.1887 Y-0.2708 I-0.0005 J0.0187
M11P1 G1 (turn on laser) X0.1882 Y-0.2521
X0.1881 Y-0.2488 Z-0.1247
X0.188 Y-0.2456 Z-0.1239
Y-0.2427 Z-0.1225
X0.1879 Y-0.24 Z-0.1206
X0.1878 Y-0.2377 Z-0.1183
Y-0.2358 Z-0.1156
Y-0.2344 Z-0.1127
X0.1877 Y-0.2336 Z-0.1095
Y-0.2333 Z-0.1063
M10P1 G0  (turn off laser) Z0.1
(2D CONTOUR5)
M10P1 G0  (turn off laser) X-0.7265 Y-0.0171
M11P1 G1 (turn on laser) Z0.1 F30.
Z0.0694
Z-0.0113
X-0.7262 Z-0.0145
X-0.7254 Z-0.0177
X-0.724 Z-0.0206
X-0.7221 Z-0.0233
X-0.7198 Y-0.017 Z-0.0256
X-0.7171 Z-0.0275
X-0.7142 Z-0.0289
X-0.711 Z-0.0297
X-0.7077 Z-0.03
X-0.689 F45.
M11P1 G3 (turn on laser) X-0.6703 Y0.0018 I0. J0.0187
M11P1 G2 (turn on laser) X-0.5122 Y0.2485 I0.2709 J0.0004
M11P1 G1 (turn on laser) X-0.048 Y0.4611
M11P1 G2 (turn on laser) X0.3743 Y-0.4611 I0.2112 J-0.4611
X-0.0516 Y-0.4594 I-0.2112 J0.4611
M11P1 G1 (turn on laser) X-0.5141 Y-0.2432
M11P1 G2 (turn on laser) X-0.6703 Y0.0018 I0.1147 J0.2454
M11P1 G3 (turn on laser) X-0.6891 Y0.0205 I-0.0187 J0.
M11P1 G1 (turn on laser) X-0.7078
X-0.7111 Z-0.0297
X-0.7142 Z-0.0289
X-0.7172 Z-0.0275
X-0.7199 Y0.0204 Z-0.0256
X-0.7222 Z-0.0233
X-0.724 Z-0.0206
X-0.7254 Z-0.0177
X-0.7263 Z-0.0145
X-0.7266 Z-0.0113
M10P1 G0  (turn off laser) Z0.1
X-0.7265 Y-0.0171
M11P1 G1 (turn on laser) Z0.0394 F30.
Z-0.0413
X-0.7262 Z-0.0445
X-0.7254 Z-0.0477
X-0.724 Z-0.0506
X-0.7221 Z-0.0533
X-0.7198 Y-0.017 Z-0.0556
X-0.7171 Z-0.0575
X-0.7142 Z-0.0589
X-0.711 Z-0.0597
X-0.7077 Z-0.06
X-0.689 F45.
M11P1 G3 (turn on laser) X-0.6703 Y0.0018 I0. J0.0187
M11P1 G2 (turn on laser) X-0.5122 Y0.2485 I0.2709 J0.0004
M11P1 G1 (turn on laser) X-0.048 Y0.4611
M11P1 G2 (turn on laser) X0.3743 Y-0.4611 I0.2112 J-0.4611
X-0.0516 Y-0.4594 I-0.2112 J0.4611
M11P1 G1 (turn on laser) X-0.5141 Y-0.2432
M11P1 G2 (turn on laser) X-0.6703 Y0.0018 I0.1147 J0.2454
M11P1 G3 (turn on laser) X-0.6891 Y0.0205 I-0.0187 J0.
M11P1 G1 (turn on laser) X-0.7078
X-0.7111 Z-0.0597
X-0.7142 Z-0.0589
X-0.7172 Z-0.0575
X-0.7199 Y0.0204 Z-0.0556
X-0.7222 Z-0.0533
X-0.724 Z-0.0506
X-0.7254 Z-0.0477
X-0.7263 Z-0.0445
X-0.7266 Z-0.0413
M10P1 G0  (turn off laser) Z0.1
X-0.7265 Y-0.0171
M11P1 G1 (turn on laser) Z0.0094 F30.
Z-0.0713
X-0.7262 Z-0.0745
X-0.7254 Z-0.0777
X-0.724 Z-0.0806
X-0.7221 Z-0.0833
X-0.7198 Y-0.017 Z-0.0856
X-0.7171 Z-0.0875
X-0.7142 Z-0.0889
X-0.711 Z-0.0897
X-0.7077 Z-0.09
X-0.689 F45.
M11P1 G3 (turn on laser) X-0.6703 Y0.0018 I0. J0.0187
M11P1 G2 (turn on laser) X-0.5122 Y0.2485 I0.2709 J0.0004
M11P1 G1 (turn on laser) X-0.048 Y0.4611
M11P1 G2 (turn on laser) X0.3743 Y-0.4611 I0.2112 J-0.4611
X-0.0516 Y-0.4594 I-0.2112 J0.4611
M11P1 G1 (turn on laser) X-0.5141 Y-0.2432
M11P1 G2 (turn on laser) X-0.6703 Y0.0018 I0.1147 J0.2454
M11P1 G3 (turn on laser) X-0.6891 Y0.0205 I-0.0187 J0.
M11P1 G1 (turn on laser) X-0.7078
X-0.7111 Z-0.0897
X-0.7142 Z-0.0889
X-0.7172 Z-0.0875
X-0.7199 Y0.0204 Z-0.0856
X-0.7222 Z-0.0833
X-0.724 Z-0.0806
X-0.7254 Z-0.0777
X-0.7263 Z-0.0745
X-0.7266 Z-0.0713
M10P1 G0  (turn off laser) Z0.1
X-0.7265 Y-0.0171
M11P1 G1 (turn on laser) Z-0.0206 F30.
Z-0.0888
X-0.7262 Z-0.0921
X-0.7077 Y-0.017
X-0.689 F45.
M11P1 G3 (turn on laser) X-0.6703 Y0.0018 I0. J0.0187
M11P1 G2 (turn on laser) X-0.6546 Y0.0929 I0.2709 J0.0004
X-0.6433 Y0.1201 Z-0.1016 I0.2553 J-0.0907 F30.
X-0.6344 Y0.137 Z-0.1075 I0.2439 J-0.1179
X-0.5122 Y0.2485 I0.235 J-0.1348 F45.
M11P1 G1 (turn on laser) X-0.048 Y0.4611
M11P1 G2 (turn on laser) X0.0396 Y0.4918 I0.2112 J-0.4611
X0.079 Y0.5001 Z-0.0938 I0.1236 J-0.4918
M11P1 G1 (turn on laser) X0.0837 Y0.5009 Z-0.0921
M11P1 G2 (turn on laser) X0.2711 Y0.4955 I0.0795 J-0.5009
X0.3101 Y0.4854 Z-0.1059 I-0.108 J-0.4955 F30.
M11P1 G1 (turn on laser) X0.3146 Y0.484 Z-0.1075
M11P1 G2 (turn on laser) X0.3439 Y-0.4738 I-0.1515 J-0.484 F45.
X0.3058 Y-0.4867 Z-0.0938 I-0.1808 J0.4738
M11P1 G1 (turn on laser) X0.3012 Y-0.488 Z-0.0921
M11P1 G2 (turn on laser) X0.1144 Y-0.5048 I-0.1381 J0.488
X0.0745 Y-0.4993 Z-0.1059 I0.0487 J0.5048 F30.
M11P1 G1 (turn on laser) X0.0699 Y-0.4985 Z-0.1075
M11P1 G2 (turn on laser) X-0.0516 Y-0.4594 I0.0933 J0.4985 F45.
M11P1 G1 (turn on laser) X-0.5141 Y-0.2432
M11P1 G2 (turn on laser) X-0.6311 Y-0.1382 I0.1147 J0.2454
X-0.6449 Y-0.1122 Z-0.0983 I0.2317 J0.1404
X-0.6524 Y-0.0946 Z-0.0921 I0.2456 J0.1144
X-0.6703 Y0.0018 I0.253 J0.0968
M11P1 G3 (turn on laser) X-0.6891 Y0.0205 I-0.0187 J0.
M11P1 G1 (turn on laser) X-0.7078
X-0.7262 Y0.0204 F30.
X-0.7266 Z-0.0888 F45.
M10P1 G0  (turn off laser) Z0.1
X-0.7265 Y-0.0171
M11P1 G1 (turn on laser) Z-0.0381 F30.
Z-0.0921
X-0.7077 Y-0.017
X-0.689 F45.
M11P1 G3 (turn on laser) X-0.6703 Y0.0018 I0. J0.0187
M11P1 G2 (turn on laser) X-0.6546 Y0.0929 I0.2709 J0.0004
X-0.6433 Y0.1201 Z-0.1016 I0.2553 J-0.0907 F30.
X-0.6291 Y0.1458 Z-0.1106 I0.2439 J-0.1179
X-0.6121 Y0.1699 Z-0.1189 I0.2297 J-0.1436
X-0.5971 Y0.1874 Z-0.125 I0.2128 J-0.1677
X-0.5122 Y0.2485 I0.1978 J-0.1852 F45.
M11P1 G1 (turn on laser) X-0.048 Y0.4611
M11P1 G2 (turn on laser) X-0.0108 Y0.4764 I0.2112 J-0.4611
X0.0275 Y0.4887 Z-0.1117 I0.1739 J-0.4764
X0.0668 Y0.4979 Z-0.098 I0.1356 J-0.4887
X0.0837 Y0.5009 Z-0.0921 I0.0964 J-0.4979
X0.2711 Y0.4955 I0.0795 J-0.5009
X0.3101 Y0.4854 Z-0.1059 I-0.108 J-0.4955 F30.
X0.3481 Y0.4722 Z-0.1194 I-0.1469 J-0.4854
X0.364 Y0.4656 Z-0.125 I-0.185 J-0.4722
X0.3921 Y-0.4525 I-0.2009 J-0.4656 F45.
X0.3555 Y-0.4692 Z-0.1117 I-0.229 J0.4525
X0.3177 Y-0.483 Z-0.098 I-0.1924 J0.4692
X0.3012 Y-0.488 Z-0.0921 I-0.1545 J0.483
X0.1144 Y-0.5048 I-0.1381 J0.488
X0.0745 Y-0.4993 Z-0.1059 I0.0487 J0.5048 F30.
X0.0352 Y-0.4907 Z-0.1194 I0.0886 J0.4993
X0.0186 Y-0.4861 Z-0.125 I0.1279 J0.4907
X-0.0516 Y-0.4594 I0.1445 J0.4861 F45.
M11P1 G1 (turn on laser) X-0.5141 Y-0.2432
M11P1 G2 (turn on laser) X-0.5927 Y-0.1876 I0.1147 J0.2454
X-0.6121 Y-0.1655 Z-0.1172 I0.1933 J0.1898
X-0.6291 Y-0.1415 Z-0.1087 I0.2128 J0.1677
X-0.6433 Y-0.1157 Z-0.0996 I0.2297 J0.1437
X-0.6524 Y-0.0946 Z-0.0921 I0.2439 J0.1179
X-0.6703 Y0.0018 I0.253 J0.0968
M11P1 G3 (turn on laser) X-0.6891 Y0.0205 I-0.0187 J0.
M11P1 G1 (turn on laser) X-0.7266 Y0.0204
M10P1 G0  (turn off laser) Z0.1
M9
G28 G91 Z0.
G90
G28 G91 X0. Y0.
G90
M30
